X: 23220
T: Leaping Lulu
R: jig
M: 6/8
K: Bminor
|:F2B B2c|dcB f2B|F2B Bcd|cBA F2E|
F2B B2c|dcB f2f|faf cec|1 B2B B2A:|2 B2B BcB||
K: Amaj
|:Ace a2a|gab a2e|faf cec|dcd BcB|
Ace a2a|gab a2e|faf cec|dBG A3:|

